X: 2346
M: C
L: 1/8
K: D
(uAG) |:\
(vFA)d2 d2cB | (ucd)e2 e2[1 de |\
fafd gfed | cded cBAG :|[2 ag |\
fdec dABG | F2D2D2 ::\
(3(ABc) |\
dAFA DFAd |
edcB Aceg |\
fdAF DFAd | edcB A2A2 |\
fdec dABG | F2D2D2 :|


